packages/match-icons/product/svg/programmable-voice.svg

<svg fill="none" height="32" viewBox="0 0 32 32" width="32" xmlns="http://www.w3.org/2000/svg"><path d="m24 30.49c-.4469-.0015-.8854-.1223-1.27-.35-2.6267-1.564-5.1396-3.3117-7.52-5.23-1.93-1.59-3.45-2.95-4.8-4.3-1.34999-1.35-2.81999-3-4.49999-5-1.87908-2.3371-3.58686-4.8068-5.109996-7.39-.270087-.47444-.378131-1.02399-.307753-1.56536s.315341-1.04504.697749-1.43464l4-4c.47596-.453044 1.1079-.705718 1.765-.705718.65711 0 1.28905.252674 1.765.705718l4.86999 4.87c.4672.46861.7295 1.10331.7295 1.765 0 .66168-.2623 1.29638-.7295 1.765l-1.34 1.33c1.1721 1.4549 2.4241 2.8437 3.75 4.16 1.2674 1.2713 2.6027 2.473 4 3.6l1.34-1.33c.4686-.4672 1.1033-.7295 1.765-.7295s1.2964.2623 1.765.7295l4.87 4.87c.4672.4686.7295 1.1033.7295 1.765s-.2623 1.2964-.7295 1.765l-4 4c-.4662.4531-1.0899.7076-1.74.71zm-16.99999-28.04c-.13188.00188-.25768.05579-.35.15l-4 4c-.07792.0791-.12789.18148-.14233.29158-.01444.11009.00745.22189.06233.31842 1.46025 2.48474 3.09783 4.8609 4.9 7.11 1.63 2 3.05999 3.55 4.36999 4.86 1.4771 1.4661 3.0292 2.8546 4.65 4.16 2.2993 1.8582 4.7289 3.5492 7.27 5.06.097.0533.2084.0743.3181.0599s.212-.0634.2919-.1399l4-4c.0469-.0465.0841-.1018.1095-.1627.0253-.0609.0384-.1263.0384-.1923s-.0131-.1314-.0384-.1923c-.0254-.0609-.0626-.1162-.1095-.1627l-4.86-4.87c-.0951-.0923-.2225-.1438-.355-.1438s-.2598.0515-.355.1438l-2 2c-.1744.173-.4063.2757-.6516.2886s-.4868-.0649-.6784-.2186l-.7-.56c-1.4528-1.1711-2.8414-2.4196-4.16-3.74-1.3628-1.3846-2.6481-2.8435-3.85-4.37l-.56-.7c-.1524-.1928-.22851-.4349-.21376-.6803.01476-.2453.11936-.4766.29376-.6497l2-2c.0469-.04649.0841-.10179.1095-.16271.0253-.06093.0384-.12629.0384-.19229 0-.06601-.0131-.13136-.0384-.19229-.0254-.06093-.0626-.11623-.1095-.16271l-4.93999-4.8c-.09043-.09098-.21183-.14454-.34-.15z" fill="#394762"/></svg>

<svg width="32" height="32" viewBox="0 0 32 32" fill="none" xmlns="http://www.w3.org/2000/svg">
<path d="M24 30.49C23.5531 30.4885 23.1146 30.3677 22.73 30.14C20.1033 28.576 17.5904 26.8283 15.21 24.91C13.28 23.32 11.76 21.96 10.41 20.61C9.06001 19.26 7.59001 17.61 5.91001 15.61C4.03093 13.2729 2.32315 10.8032 0.800014 8.22C0.529927 7.74556 0.421883 7.19601 0.492261 6.65464C0.562639 6.11327 0.807602 5.6096 1.19001 5.22L5.19001 1.22C5.66597 0.766956 6.29791 0.514282 6.95501 0.514282C7.61212 0.514282 8.24406 0.766956 8.72001 1.22L13.59 6.09C14.0572 6.55861 14.3195 7.19331 14.3195 7.855C14.3195 8.51668 14.0572 9.15138 13.59 9.62L12.25 10.95C13.4221 12.4049 14.6741 13.7937 16 15.11C17.2674 16.3813 18.6027 17.583 20 18.71L21.34 17.38C21.8086 16.9128 22.4433 16.6505 23.105 16.6505C23.7667 16.6505 24.4014 16.9128 24.87 17.38L29.74 22.25C30.2072 22.7186 30.4695 23.3533 30.4695 24.015C30.4695 24.6767 30.2072 25.3114 29.74 25.78L25.74 29.78C25.2738 30.2331 24.6501 30.4876 24 30.49V30.49ZM7.00001 2.45C6.86813 2.45188 6.74233 2.50579 6.65001 2.6L2.65001 6.6C2.57209 6.6791 2.52212 6.78148 2.50768 6.89158C2.49324 7.00167 2.51513 7.11347 2.57001 7.21C4.03026 9.69474 5.66784 12.0709 7.47001 14.32C9.10001 16.32 10.53 17.87 11.84 19.18C13.3171 20.6461 14.8692 22.0346 16.49 23.34C18.7893 25.1982 21.2189 26.8892 23.76 28.4C23.857 28.4533 23.9684 28.4743 24.0781 28.4599C24.1878 28.4455 24.2901 28.3965 24.37 28.32V28.32L28.37 24.32C28.4169 24.2735 28.4541 24.2182 28.4795 24.1573C28.5048 24.0964 28.5179 24.031 28.5179 23.965C28.5179 23.899 28.5048 23.8336 28.4795 23.7727C28.4541 23.7118 28.4169 23.6565 28.37 23.61L23.51 18.74C23.4149 18.6477 23.2875 18.5962 23.155 18.5962C23.0225 18.5962 22.8952 18.6477 22.8 18.74L20.8 20.74C20.6256 20.913 20.3937 21.0157 20.1484 21.0286C19.9031 21.0415 19.6616 20.9637 19.47 20.81L18.77 20.25C17.3172 19.0789 15.9286 17.8304 14.61 16.51C13.2472 15.1254 11.9619 13.6665 10.76 12.14L10.2 11.44C10.0476 11.2472 9.97149 11.0051 9.98624 10.7597C10.001 10.5144 10.1056 10.2831 10.28 10.11L12.28 8.11C12.3269 8.06351 12.3641 8.00821 12.3895 7.94729C12.4148 7.88636 12.4279 7.821 12.4279 7.755C12.4279 7.68899 12.4148 7.62364 12.3895 7.56271C12.3641 7.50178 12.3269 7.44648 12.28 7.4L7.34001 2.6C7.24958 2.50902 7.12818 2.45546 7.00001 2.45Z" fill="#394762"/>
</svg>
